X: 293
T: 294. Herr Jesu Christ, du h\"ochstes Gut
N: Derived from chor294.krn
C: Johann Sebastian Bach
%%abc-version 2.0
%%abcx-abcm2ps-target-version 5.9.1 (29 Sep 2008)
%%abc-creator hum2abc beta
%%abcx-conversion-date 2019/03/11 17:28:19
%%abc-edited-by Craig Stuart Sapp
%%humdrum-veritas 3047058040
%%humdrum-veritas-data 1051125276
%%
%%barnumbers 0
L: 1/4
M: C
%%staves [1 2 3 4]
V: 1 clef=treble
V: 2 clef=treble
V: 3 clef=treble-8
V: 4 clef=bass
K: D
[V:1] B [I:setbarnb 1]| 
[V:2] F | 
[V:3] d | 
[V:4] B,/A,/ | 
[V:1] B^ABc | 
[V:2] EFF^G/^A/ | 
[V:3] c/B/cde | 
[V:4] G,F,/E,/D,C, | 
[V:1] dc!fermata!BB | 
[V:2] B^A!fermata!FF/^G/ | 
[V:3] f3/e/!fermata!dd | 
[V:4] B,,F,,!fermata!B,,B, | 
[V:1] ccfe | 
[V:2] =AA/=G/F^G/^A/ | 
[V:3] eAd/c/ B/c/ | 
[V:4] A,/=G,/ F,/E,/D,3/C,/ | 
[V:1] d2!fermata!c :|]  
[V:2] B2!fermata!^A :|]  
[V:3] d/e/f!fermata!f :|]  
[V:4] B,,/C,/D,/E,/!fermata!F, :|]  
[V:1] f [I:setbarnb 5]| 
[V:2] =A | 
[V:3] A/B/ | 
[V:4] D, | 
[V:1] edc/d/e | 
[V:2] A/G/ F/^G/ ^A/B/c | 
[V:3] cd/e/f=g | 
[V:4] A,B,F,E,/F,/ | 
[V:1] dc!fermata!Bd | 
[V:2] B^A!fermata!FF/^G/ | 
[V:3] fc/e/!fermata!dd | 
[V:4] G,/E,/F,!fermata!B,,B, | 
[V:1] cBA/^G/ F/G/ | 
[V:2] =A3/^G/ F/^E/F | 
[V:3] e/E/ F/^G/ A/B/ A/^G/ | 
[V:4] A,^D,/^E,/F,F,, | 
[V:1] A/B/B!fermata!cc | 
[V:2] CF/E/!fermata!EF | 
[V:3] F3/^G/!fermata!Ac | 
[V:4] F,/=E,/ D,/E,/!fermata!A,,^A,, | 
[V:1] def3/e/ | 
[V:2] F/B/ A/=G/F^G/^A/ | 
[V:3] B/f/ed3/c/ | 
[V:4] B,,C,D,E,/F,/ | 
[V:1] dec2 | 
[V:2] B/=A/=GF2 | 
[V:3] Bc/B/ ^A/c/e | 
[V:4] =G,/F,/E,F,F,, | 
[V:1] !fermata!B3 |]  
[V:2] !fermata!F3 |]  
[V:3] !fermata!^d3 |]  
[V:4] !fermata!B,,3 |]  



